**kern
*staff1
!!pagebreak:original
*I"P1
=1-
*clefG2
*k[f#c#g#]
*M3/4
8a/L
8a/J
4g#/
4f#/
=2
2f#/
4e/
=3
8a/L
8a/J
4g#/
4f#/
=4
2f#/
4e/
=5
8dd\L
8dd\J
4ee\
4ee#\
=6
2ee#\
4ff#\
=7
8dd\L
8dd\J
4een\
4gg#\
=8
2ff#\
4ee\
*-
